X:1
T:Bonn, 76.76.77.76
T:Bonn, 76.76.77.76
T: German, before 1895
T:Public Domain Courtesy of the Cyber Hymnal™
C:German, before 1895
Z:Public Domain
Z:Courtesy of the Cyber Hymnal™
%%score ( 1 2 ) ( 3 4 )
L:1/8
Q:1/4=110
M:4/4
K:F
V:1 treble 
V:2 treble 
V:3 bass 
V:4 bass 
V:1
 F3 [FG] [FA]2 [Fd]2 | [Ec]2 [GB]2 [FA]2 [FA]2 | c2 [FA] [FG]2 [EG]2 x | F4 F3 [FG] | %4
 [FA]2 [Fd]2 [Ec]2 [GB]2 | [FA]2 [FA]2 c2 [FA] x | [FG]2 [EG]2 F4 | [EG]2 [EG]2 [EG]2 [^FA]2 | %8
 [GB]2 [GB]2 [FA]4 | [FA]2 [Fd]2 [Ff]2 [Fd]2 | [FA]2 [F=B]2 [Ec]4 | [Ec]2 [Gc]2 [Fc]2 [FA]2 | %12
 B2 (z F) [Fd]2 [Fc]2 | [FB]2 [FA]2 [FG]2 [EG]2 | F8 |] %15
V:2
 F3 x5 | x8 | F3 B x4 | F4 F3 x | x8 | x4 F3 B | x4 F4 | x8 | x8 | x8 | x8 | x8 | F3 c2 x3 | x8 | %14
 F8 |] %15
V:3
 [F,A,]3 [F,B,] [F,C]2 (B,A,) | [C,G,]2 [E,C]2 [F,C]2 [F,C]2 | [A,,C]2 [B,,D]2 (G,A,) [C,B,]2 | %3
 [F,A,]4 [F,A,]3 [F,B,] | [F,C]2 B,A, [C,G,]2 [E,C]2 | [F,C]2 [F,C]2 [A,,C]2 [B,,D]2 | %6
 (G,A,) [C,B,]2 [F,A,]4 | C2 C2 [B,C]2 [A,C]2 | [G,D]2 [G,D]2 [D,D]4 | %9
 [D,D]2 [B,,A,]2 [B,,A,]2 [F,A,]2 | [F,D]2 [G,D]2 [C,C]4 | [C,C]2 [C,B,]2 [F,A,]2 [_E,C]2 | %12
 [D,F]2 [C,_E]2 [B,,D]2 [A,,F,]2 | [D,B,]2 [B,,D]2 [C,G,]2 [C,B,]2 | [F,A,]8 |] %15
V:4
 x6 B,,2 | x8 | x4 C,2 x2 | x8 | x2 B,,2 x4 | x8 | C,2 x6 | C2 C2 x4 | x8 | x8 | x8 | x8 | x8 | %13
 x8 | x8 |] %15

